packages/katcn/src/icons/svg/pathfinder.svg

<svg width="24" height="25" viewBox="0 0 24 25" fill="none" xmlns="http://www.w3.org/2000/svg">
<path d="M19.38 7.74124H16.7687V5.02891C16.6682 3.01977 15.0612 1.31201 12.952 1.31201H4.71618C2.70744 1.31201 1 3.01977 1 5.02891V13.2663C1 15.3759 2.70744 16.9832 4.71618 16.9832H7.32755V19.5951C7.32755 21.7047 9.03499 23.312 11.0437 23.312H19.2796C21.3888 23.312 22.9958 21.6042 22.9958 19.5951V11.3577C23.0962 9.34854 21.3888 7.74124 19.38 7.74124ZM4.71618 14.9741C3.71181 14.9741 3.00875 14.1705 3.00875 13.2663V5.02891C3.00875 4.1248 3.81225 3.32114 4.71618 3.32114H12.952C13.9564 3.32114 14.6595 4.1248 14.6595 5.02891V13.2663C14.6595 14.2709 13.856 14.9741 12.952 14.9741H9.43674V11.4581C9.43674 10.4536 10.2402 9.75037 11.1442 9.75037C11.7468 9.75037 12.1485 9.34854 12.1485 8.7458C12.1485 8.14306 11.7468 7.74124 11.1442 7.74124C9.03499 7.74124 7.42799 9.34854 7.42799 11.4581V14.9741H4.71618ZM20.987 19.6956C20.987 20.7001 20.284 21.4033 19.38 21.4033H11.1442C10.1398 21.4033 9.43674 20.5997 9.43674 19.6956V17.0837H12.952C15.0612 17.0837 16.6682 15.3759 16.6682 13.3668V9.75037H19.2796C20.284 9.75037 20.987 10.554 20.987 11.4581V19.6956Z" fill="black"/>
</svg>

<svg xmlns="http://www.w3.org/2000/svg" fill="none" viewBox="0 0 24 25"><path fill="#000" d="M19.38 7.741h-2.611V5.03c-.1-2.01-1.708-3.717-3.817-3.717H4.716C2.707 1.312 1 3.02 1 5.029v8.237a3.71 3.71 0 0 0 3.716 3.717h2.612v2.612a3.71 3.71 0 0 0 3.716 3.717h8.236a3.71 3.71 0 0 0 3.716-3.717v-8.237c.1-2.01-1.607-3.617-3.616-3.617M4.716 14.974a1.693 1.693 0 0 1-1.707-1.708V5.03c0-.904.803-1.708 1.707-1.708h8.236c1.004 0 1.707.804 1.707 1.708v8.237a1.693 1.693 0 0 1-1.707 1.708H9.437v-3.516c0-1.004.803-1.708 1.707-1.708.603 0 1.005-.401 1.005-1.004s-.402-1.005-1.005-1.005c-2.109 0-3.716 1.608-3.716 3.717v3.516zm16.271 4.722c0 1.004-.703 1.707-1.607 1.707h-8.236a1.693 1.693 0 0 1-1.707-1.707v-2.612h3.515a3.71 3.71 0 0 0 3.716-3.717V9.75h2.612c1.004 0 1.707.804 1.707 1.708z"/></svg>
